!!!COM: Haydn, Franz Joseph
!!!OTL: String Quartet in A Major
!!!OPS: Opus 55
!!!ONM: No. 1
!!!OMD: Menuetto
!!!OMV: 3
!!!SCT: H III:60
!!!SCA: Thematisch-bibliographisches Werkevererzeichnis (A. van Hoboken)
!!!YOR: Dover Edition; reprint of Eulenburg Edition
!!!ENC: Walter Hewlett
!!!CDT: 1732/3/31/-1809/5/31/
!!!CNT: Oesterreich
!!!YEC: Copyright (c) 1994, 2000 Center for Computer Assisted Research in the Humanities
!!!YEM: Rights to all derivative editions reserved.
!!!YEM: Refer to licensing agreement for further details.
!!!YEN: United States of America
**kern	**dynam	**kern	**dynam	**kern	**dynam	**kern	**dynam
*I:Violoncello	*I:Violoncello	*I:Viola	*I:Viola	*I:Violine II	*I:Violine II	*I:Violine I	*I:Violine I
*>[A,B,B]	*	*>[A,B,B]	*	*>[A,B,B]	*	*>[A,B,B]	*
*>A	*	*>A	*	*>A	*	*>A	*
*clefF4	*	*clefC3	*	*clefG2	*	*clefG2	*
*k[f#c#g#]	*	*k[f#c#g#]	*	*k[f#c#g#]	*	*k[f#c#g#]	*
*A:	*	*A:	*	*A:	*	*A:	*
*M3/4	*	*M3/4	*	*M3/4	*	*M3/4	*
4r	.	4r	.	4r	.	8.cc#t\L	p
.	.	.	.	.	.	16dd\Jk	.
2ryy	.	2ryy	.	2ryy	.	2ryy	.
=1	=1	=1	=1	=1	=1	=1	=1
4AA'/	<p	4e'\	<p	4c#'/	<p	4ee'\	<
4AA'/	.	4e'\	.	4c#'/	.	4ee'\	.
4AA'/	]	4e'\	]	(8cc#\L	.	4ee'\	]
.	.	.	.	8a\J)	]	.	.
=2	=2	=2	=2	=2	=2	=2	=2
4BB'/	f	4e'\	f	4g#'/	f	(8ee\L	f
.	.	.	.	.	.	8ddd\)	.
4BB'/	.	4e'\	.	4g#'/	.	(8ddd\	.
.	.	.	.	.	.	8bb\)	.
4BB'/	.	4e'\	.	4g#'/	.	(8bb\	.
.	.	.	.	.	.	8gg#\J)	.
=3	=3	=3	=3	=3	=3	=3	=3
4C#'/	.	4e'\	.	(4a/	.	(8ee\L	.
.	.	.	.	.	.	8ccc#\)	.
4D'\	.	4f#'\	.	4f#/)	.	(8ccc#\	.
.	.	.	.	.	.	8bb\)	.
4D#'\	.	4d#'\	.	4f#'/	.	(8bb\	.
.	.	.	.	.	.	8aa\J)	.
=4	=4	=4	=4	=4	=4	=4	=4
(2E\	>	2.e\	>]	2.B/	>]	(8aa\L	>
.	.	.	.	.	.	8gg#\	.
.	.	.	.	.	.	8ff#\)	.
.	.	.	.	.	.	8ee'\	.
4Dn\)	]	.	.	.	.	8ff#'\	.
.	.	.	.	.	.	8gg#'\J	]
=5	=5	=5	=5	=5	=5	=5	=5
8C#'/	p	8A'/	p	8e'/	p	8aa'\	p
8r	.	8r	.	8r	.	8r	.
8C#'/	.	8a'\	.	8e'/	.	8aa'\	.
8r	.	8r	.	8r	.	8r	.
8C#'/	.	8a'\	.	8e'/	.	8aa'\	.
8r	.	8r	.	8r	.	8r	.
=6	=6	=6	=6	=6	=6	=6	=6
8Cn'/	<	8e'\	<	8gn'/	<	8aa#'\	<
8r	.	8r	.	8r	.	8r	.
8C'/	.	8e'\	.	8g'/	.	8aa#'\	.
8r	.	8r	.	8r	.	8r	.
8C'/	]	8e'\	]	8g'/	]	8aa#'\	]
8r	.	8r	.	8r	.	8r	.
=7	=7	=7	=7	=7	=7	=7	=7
2.BB/	f	2e\	f	2g#/	f	2bb\	f
.	.	4A'/	.	4d#'/	.	(16bb\LL	.
.	.	.	.	.	.	16aan\	.
.	.	.	.	.	.	16gg#\	.
.	.	.	.	.	.	16ff#\JJ)	.
=8	=8	=8	=8	=8	=8	=8	=8
4E\	.	4G#'/	.	4e'/	.	4ee'\	.
4EE/	.	4r	.	4r	.	4r	.
=:!!:	=:!!:	=:!!:	=:!!:	=:!!:	=:!!:	=:!!:	=:!!:
4r	.	4r	.	4r	.	8.g#t/L	f
.	.	.	.	.	.	16a/Jk	.
2ryy	.	2ryy	.	2ryy	.	2ryy	.
=9	=9	=9	=9	=9	=9	=9	=9
4E'\	f	4G#'/	.	4dn'/	f	4b'\	.
4E'\	.	4G#'/	.	4d'/	.	4b'\	.
4r	.	4r	.	4r	.	(16a/LL	.
.	.	.	.	.	.	16g#/	.
.	.	.	.	.	.	16f#/	.
.	.	.	.	.	.	16e/JJ)	.
=10	=10	=10	=10	=10	=10	=10	=10
4E'\	.	4A'/	.	4c#'/	.	4ee'\	.
4E'\	.	4A'/	.	4c#'/	.	4ee'\	.
4r	.	4r	.	4r	.	(16dd\LL	.
.	.	.	.	.	.	16cc#\	.
.	.	.	.	.	.	16b\	.
.	.	.	.	.	.	16a\JJ)	.
=11	=11	=11	=11	=11	=11	=11	=11
4E'\	.	4f#'\	.	4d#'/	.	4aa'\	.
4E'\	.	4f#'\	.	4d#'/	.	4aa'\	.
4r	.	4r	.	4r	.	(16gg#\LL	.
.	.	.	.	.	.	16ff#\	.
.	.	.	.	.	.	16ee\	.
.	.	.	.	.	.	16dd#\JJ)	.
=12	=12	=12	=12	=12	=12	=12	=12
4E'\	.	4B'/	.	4g#'/	.	2ee\	.
4E'\	.	4B'/	.	4g#'/	.	.	.
4r	.	4r	.	4r	.	&(8.ee\L)	p
.	.	.	.	.	.	16ddn\Jk&)	.
=13	=13	=13	=13	=13	=13	=13	=13
4e\	p	4gn\	p	4a#/	p	4cc#\	.
4e\	.	4g\	.	4a#/	.	4cc#\	.
4e\	.	4g\	.	4a#/	.	4cc#\	.
=14	=14	=14	=14	=14	=14	=14	=14
2d\	.	4f#\	.	4b\	.	(8cc#\L	.
.	.	.	.	.	.	8dd\	.
.	.	4r	.	4r	.	8dd#\	.
.	.	.	.	.	.	8ee\	.
4r	.	4r	.	4r	.	8ee#\	.
.	.	.	.	.	.	8ff#\J)	.
=15	=15	=15	=15	=15	=15	=15	=15
4d\	.	4e\	.	4g#/	.	(8ff#\L	.
.	.	.	.	.	.	8b\J)	.
4d\	.	4e\	.	4g#/	.	4b\	.
4d\	.	4e\	.	4g#/	.	4b\	.
=16	=16	=16	=16	=16	=16	=16	=16
2c#\	.	4e\	.	4an/	.	(8b\L	.
.	.	.	.	.	.	8ccn\	.
.	.	4r	.	4r	.	8cc#\	.
.	.	.	.	.	.	8ddn\	.
4C#/	.	[4A/	.	4e/	.	8dd#\	.
.	.	.	.	.	.	8een\J)	.
=17	=17	=17	=17	=17	=17	=17	=17
2D\	.	4A/]	.	2.f#/	.	(8ee\L	.
.	.	.	.	.	.	8ddn\)	.
.	.	4F#/	.	.	.	(8dd\	.
.	.	.	.	.	.	8cc#\)	.
4D#\	.	4D#/	.	.	.	(8cc#\	.
.	.	.	.	.	.	8b\J)	.
=18	=18	=18	=18	=18	=18	=18	=18
2E\	.	2E/	.	2B/	.	(8a/L	.
.	.	.	.	.	.	8g#/	.
.	.	.	.	.	.	8f#/	.
.	.	.	.	.	.	8e/J)	.
4r	.	4r	.	4r	.	8.cc#t\L	.
.	.	.	.	.	.	16dd\Jk	.
=19	=19	=19	=19	=19	=19	=19	=19
4AA'/	<	4e'\	<	4c#'/	<	4ee'\	<
4AA'/	.	4e'\	.	4c#'/	.	4ee'\	.
4AA'/	]	4e'\	]	(8cc#\L	.	4ee'\	]
.	.	.	.	8a\J)	]	.	.
=20	=20	=20	=20	=20	=20	=20	=20
4BB'/	f	4e'\	f	4g#'/	f	(8ee\L	f
.	.	.	.	.	.	8ddd\)	.
4BB'/	.	4e'\	.	4g#'/	.	(8ddd\	.
.	.	.	.	.	.	8bb\)	.
4BB'/	.	4e'\	.	4g#'/	.	(8bb\	.
.	.	.	.	.	.	8gg#\J)	.
=21	=21	=21	=21	=21	=21	=21	=21
4C#'/	.	4e'\	.	(4a/	.	(8ee\L	.
.	.	.	.	.	.	8ccc#\)	.
4Dn'\	.	4f#'\	.	4f#/)	.	(8ccc#\	.
.	.	.	.	.	.	8bb\)	.
4D#'\	.	4d#'\	.	4f#'/	.	(8bb\	.
.	.	.	.	.	.	8aa\J)	.
=22	=22	=22	=22	=22	=22	=22	=22
(2E\	.	2.e\	.	2.B/	.	(8aa\L	.
.	.	.	.	.	.	8gg#\	.
.	.	.	.	.	.	8ff#\)	.
.	.	.	.	.	.	(8ee\	.
4Dn\)	.	.	.	.	.	8ff#\	.
.	.	.	.	.	.	8gg#\J)	.
=23	=23	=23	=23	=23	=23	=23	=23
2C#/	.	2e\	.	4A'/	.	4aa'\	.
.	.	.	.	4a'/	.	4aa'\	.
(4C#z/	z	(4ez\	z	(4gnz/	z	(4aa#z\	z
=24	=24	=24	=24	=24	=24	=24	=24
2D\)	.	2f#\)	.	4f#/)	.	4bb\)	.
.	.	.	.	4b/	.	4bb'\	.
(4D#z\	z	(4f#z\	z	[4az/	z	(4bb#z\	z
=25	=25	=25	=25	=25	=25	=25	=25
2E\)	.	4e\)	.	4a/_	.	[4ccc#\)	.
.	.	4E'/	.	8.a/L]	.	8.ccc#\L])	.
.	.	.	.	16cc#/k	.	16eee\k	.
4EE'/	.	4d'\	.	8.b/	.	8.ddd\	.
.	.	.	.	16g#/Jk	.	16bbn\Jk	.
=26	=26	=26	=26	=26	=26	=26	=26
4AA'/	.	4c#'\	.	4a/	.	4aa\	.
4r	.	4r	.	4r	.	4r	.
=:!!:	=:!!:	=:!!:	=:!!:	=:!!:	=:!!:	=:!!:	=:!!:
! Trio	!	! Trio	!	! Trio	!	! Trio	!
!	!	!	!	! dolce	!	!	!
4r	.	4r	.	(8c#/L	p	4r	.
.	.	.	.	8e/J)	.	.	.
2ryy	.	2ryy	.	2ryy	.	2ryy	.
=27	=27	=27	=27	=27	=27	=27	=27
8AA'\L	p	4e'\ 4c#\	p	4a'/	.	2.r	.
8C#'\	.	.	.	.	.	.	.
8E'\	.	4r	.	4a'/	.	.	.
8A'\	.	.	.	.	.	.	.
8E'\	.	4r	.	(8e/L	.	.	.
8C#'\J	.	.	.	8a/J)	.	.	.
=28	=28	=28	=28	=28	=28	=28	=28
4AA'/	.	4e'\ 4c#\	.	4cc#'\	.	8aa'\L	p
.	.	.	.	.	.	8bb'\	.
4r	.	4a'\	.	4cc#'\	.	8ccc#'\	.
.	.	.	.	.	.	8aa'\	.
4r	.	4a'\	.	4cc#'\	.	8eee'\	.
.	.	.	.	.	.	8ccc#'\J	.
=29	=29	=29	=29	=29	=29	=29	=29
2.E\	.	2.g#\	.	4.bT\	.	8ddd'\L	.
.	.	.	.	.	.	8bb'\	.
.	.	.	.	.	.	8aa'\	.
.	.	.	.	8a/	.	8gg#'\	.
.	.	.	.	4b\	.	8ff#'\	.
.	.	.	.	.	.	8ee'\J	.
=30	=30	=30	=30	=30	=30	=30	=30
!	!	!	!	!	!	! 8va below	!
2A\	.	8a'\L	.	4a/	.	8aa\L	.
.	.	8e'\	.	.	.	8ccc#\	.
.	.	8c#'\	.	4r	.	8eee\	.
.	.	8A'\	.	.	.	8ccc#\	.
4c#\	.	8e'\	.	4a/	.	8gggn\	.
.	.	8c#'\J	.	.	.	8eee\J	.
=31	=31	=31	=31	=31	=31	=31	=31
4.d\	.	4d\	.	2a/	.	8fff#\L	.
.	.	.	.	.	.	8ddd\	.
.	.	4r	.	.	.	8aa\	.
8c#\	.	.	.	.	.	8ddd\	.
4d\	.	4r	.	(16cc#\LL	.	8ggg#\	.
.	.	.	.	16b\	.	.	.
.	.	.	.	16a\	.	8eee\J	.
.	.	.	.	16b\JJ)	.	.	.
=32	=32	=32	=32	=32	=32	=32	=32
4c#\	.	8e'\L	.	4cc#\	.	8aaa\L	.
.	.	8c#'\	.	.	.	8eee\	.
4r	.	8A'\	.	4r	.	8aaa\	.
.	.	8c#'\	.	.	.	8eee\	.
4G#\	.	8B'\	.	4r	.	8bbb\	.
.	.	8d'\J	.	.	.	8eee\J	.
=33	=33	=33	=33	=33	=33	=33	=33
2.A\	.	4c#\	.	(4ee\	.	8cccc#\L	.
.	.	.	.	.	.	8cccc#\	.
.	.	4r	.	4ee#\)	.	8cccc#\	.
.	.	.	.	.	.	8cccc#\	.
.	.	4r	.	[4ff#\	.	8cccc#\	.
.	.	.	.	.	.	8cccc#\J	.
=34	=34	=34	=34	=34	=34	=34	=34
2.G#\	.	2.r	.	4ff#\]	.	8bbb\L	.
.	.	.	.	.	.	8bbb\	.
.	.	.	.	4dd#'\	.	8bbb\	.
.	.	.	.	.	.	8bbb\	.
.	.	.	.	4een'\	.	8bbb\	.
.	.	.	.	.	.	8bbb\J	.
=35	=35	=35	=35	=35	=35	=35	=35
8A'\L	f	8a'\L	f	8aa'\L	f	8aaa\L	f
8G#'\	.	8g#'\	.	8gg#'\	.	8ggg#\	.
8A'\	.	8a'\	.	8aa'\	.	8aaa\	.
8F#'\	.	8f#'\	.	8ff#'\	.	8fff#\	.
8B'\	.	8b'\	.	8bb'\	.	8bbb\	.
8G#'\J	.	8g#'\J	.	8gg#'\J	.	8ggg#\J	.
=36	=36	=36	=36	=36	=36	=36	=36
4E'\	.	4e\	.	4ee\	.	4eee\	.
!	!	!	!	!	!	! end 8va	!
4EE/	.	4r	.	4r	.	4r	.
=:!!:	=:!!:	=:!!:	=:!!:	=:!!:	=:!!:	=:!!:	=:!!:
*>B	*	*>B	*	*>B	*	*>B	*
4r	.	8gn'\L	mf	8ee'\L	mf	4r	.
.	.	8f#'\J	.	8dd#'\J	.	.	.
2ryy	.	2ryy	.	2ryy	.	2ryy	.
=37	=37	=37	=37	=37	=37	=37	=37
4r	.	8gn'\L	.	8ee'\L	.	2.r	.
.	.	8e'\	.	8cc#'\	.	.	.
4r	.	8f#'\	.	8ddn'\	.	.	.
.	.	8d'\	.	8b'\	.	.	.
4F#\	mf	8e'\	.	8cc#'\	.	.	.
.	.	8c#'\J	.	8a#'\J	.	.	.
=38	=38	=38	=38	=38	=38	=38	=38
4BB/	.	4d\	.	8b'\L	.	2.r	.
.	.	.	.	8dd'\	.	.	.
4r	.	4r	.	8ff#'\	.	.	.
.	.	.	.	8bb'\	.	.	.
4r	.	8F#'/L	.	8dd'\	.	.	.
.	.	8E'/J	.	8cc#'\J	.	.	.
=39	=39	=39	=39	=39	=39	=39	=39
4r	.	8F#'/L	.	8dd'\L	.	2.r	.
.	.	8d'/	.	8b'\	.	.	.
4r	.	8E'/	.	8cc#'\	.	.	.
.	.	8c#'/	.	8an'\	.	.	.
4EE/	.	8D'/	.	8b'\	.	.	.
.	.	8B'/J	.	8g#'\J	.	.	.
=40	=40	=40	=40	=40	=40	=40	=40
2AA/	.	4C#/	.	8a'\L	.	2.r	.
.	.	.	.	8cc#'\	.	.	.
.	.	4r	.	8ee'\	.	.	.
.	.	.	.	8aa'\	.	.	.
4C#/	.	4e\	.	8ee'\	.	.	.
.	.	.	.	8cc#'\J	.	.	.
=41	=41	=41	=41	=41	=41	=41	=41
2D\	.	2.f#\	.	8b'/L	.	2.r	.
.	.	.	.	8a#'/	.	.	.
.	.	.	.	8b'/	.	.	.
.	.	.	.	8dd'/	.	.	.
4D#\	.	.	.	8f#'/	.	.	.
.	.	.	.	8b'/J	.	.	.
=42	=42	=42	=42	=42	=42	=42	=42
4E\	.	4B/	.	(8an/L	>	2.r	.
.	.	.	.	8g#/	.	.	.
4r	.	4r	.	8f#/	.	.	.
.	.	.	.	8e/)	]	.	.
4r	.	4r	.	8f#'/	.	.	.
.	.	.	.	8g#'/J	.	.	.
=43	=43	=43	=43	=43	=43	=43	=43
8AA'\L	.	4e'\ 4c#\	p	4a/	.	2.r	.
8C#'\	.	.	.	.	.	.	.
8E'\	.	4r	.	4a/	.	.	.
8A'\	.	.	.	.	.	.	.
8E'\	.	4r	.	(8e/L	.	.	.
8C#'\J	.	.	.	8a/J)	.	.	.
=44	=44	=44	=44	=44	=44	=44	=44
4AA/	.	4e'\ 4c#\	.	4cc#'\	.	8aa'\L	p
.	.	.	.	.	.	8bb'\	.
4r	.	4a'\	.	4cc#'\	.	8ccc#'\	.
.	.	.	.	.	.	8aa'\	.
4r	.	4a'\	.	4cc#'\	.	8eee'\	.
.	.	.	.	.	.	8ccc#'\J	.
=45	=45	=45	=45	=45	=45	=45	=45
2.E\	.	2.g#\	.	4.bT\	.	8ddd'\L	.
.	.	.	.	.	.	8bb'\	.
.	.	.	.	.	.	8aa'\	.
.	.	.	.	8a/	.	8gg#'\	.
.	.	.	.	4b\	.	8ff#'\	.
.	.	.	.	.	.	8ee'\J	.
=46	=46	=46	=46	=46	=46	=46	=46
!	!	!	!	!	!	! 8va below	!
2A\	.	8a'\L	.	4a/	.	8aa\L	.
.	.	8e'\	.	.	.	8ccc#\	.
.	.	8c#'\	.	4r	.	8eee\	.
.	.	8A'\	.	.	.	8ccc#\	.
4c#\	.	8e'\	.	4a/	.	8gggn\	.
.	.	8c#'\J	.	.	.	8eee\J	.
=47	=47	=47	=47	=47	=47	=47	=47
4.d\	.	4d\	.	2a/	.	8fff#\L	.
.	.	.	.	.	.	8ddd\	.
.	.	4r	.	.	.	8aa\	.
8c#\	.	.	.	.	.	8ddd\	.
4d\	.	4r	.	(16cc#\LL	.	8ggg#\	.
.	.	.	.	16b\	.	.	.
.	.	.	.	16a\	.	8eee\J	.
.	.	.	.	16b\JJ)	.	.	.
=48	=48	=48	=48	=48	=48	=48	=48
2c#\	<	8e'\L	.	4cc#\	.	8aaa\L	<
.	.	8c#'\	<	.	.	8eee\	.
.	.	8A'\	.	4r	.	8aaa\	.
.	.	8c#'\	.	.	.	8eee\	.
4G#\	]	8B'\	.	(8dd\L	.	8bbb\	.
.	.	8d'\J	]	8b\J)	.	8eee\J	]
=49	=49	=49	=49	=49	=49	=49	=49
4A\	f	4c#\	f	4cc#\	f	4cccc#\	f
!	!	!	!	!	!	! end 8va	!
4r	.	4r	.	4r	.	4r	.
4r	.	4r	.	4r	.	4r	.
=50	=50	=50	=50	=50	=50	=50	=50
!	!	!	!	!	!	! sul una corda	!
(2.DD/	p	2F#/	p	2.r	.	(8B/L	.
.	.	.	.	.	.	8c#/	.
.	.	.	.	.	.	8d/	.
.	.	.	.	.	.	8B/	.
.	.	4r	.	.	.	8f#/	.
.	.	.	.	.	.	8d/J)	.
=51	=51	=51	=51	=51	=51	=51	=51
2EE/)	.	2A/	.	2c#/	p	(8c#/L	.
.	.	.	.	.	.	8d/	.
.	.	.	.	.	.	8e/	.
.	.	.	.	.	.	8f#/	.
4r	.	4r	.	4r	.	8g#/	.
.	.	.	.	.	.	8a/J)	.
=52	=52	=52	=52	=52	=52	=52	=52
2.r	.	2.r	.	2.r	.	(8e/L	.
.	.	.	.	.	.	8f#/	.
.	.	.	.	.	.	8g#/	.
.	.	.	.	.	.	8a/	.
.	.	.	.	.	.	8b/	.
.	.	.	.	.	.	8cc#/J)	.
=53	=53	=53	=53	=53	=53	=53	=53
2.EE/	.	(2C#/	.	4.A/	.	(2A/	.
.	.	.	.	(8A/	.	.	.
.	.	8E/L	.	4G#/)	.	8c#/L	.
.	.	8D/J)	.	.	.	8B/J)	.
=54	=54	=54	=54	=54	=54	=54	=54
! Menuetto D.C.	!	! Menuetto D.C.	!	! Menuetto D.C.	!	! Menuetto D. C.	!
4AA/	.	4C#/	.	4A/	.	4A/	.
4r	.	4r	.	4r	.	4r	.
==:|!	==:|!	==:|!	==:|!	==:|!	==:|!	==:|!	==:|!
*-	*-	*-	*-	*-	*-	*-	*-
!!!RWG: Key is interpreted using the Humdrum key tool.
!!!GTL: 6 Quators ("Tost I + II")
!!!AFT: stage2
!!!END: 1994/09/16
!!!KEY: 3131509699
!!!EMD: Converted from MuseData to Humdrum Dec 16, 2000, by Andreas Kornstaedt using muse2kern.
!!!EMD: Manual editing by Craig Sapp, Nov 2001
